icons/women-fill.svg

<svg xmlns="http://www.w3.org/2000/svg" width="24" height="24" fill="none"><g clip-path="url(#a)"><g><path fill="#121212" d="M11 15.934C9.11596 15.6786 7.39918 14.7172 6.19688 13.2443C4.99457 11.7714 4.39646 9.8969 4.52349 7.99985C4.65052 6.10279 5.49321 4.32475 6.88116 3.0253C8.2691 1.72585 10.0987 1.00195 12 1C13.9037 0.998168 15.7368 1.72028 17.1277 3.01993C18.5186 4.31959 19.3633 6.09953 19.4905 7.99891C19.6177 9.89829 19.0179 11.775 17.8126 13.2485C16.6074 14.722 14.8869 15.682 13 15.934V18H18V20H13V24H11V20H6.00003V18H11V15.934Z"/></g></g><defs><clipPath id="a"><rect width="24" height="24" fill="white"/></clipPath></defs></svg>

<svg width="24" height="24" fill="none" xmlns="http://www.w3.org/2000/svg"><g clip-path="url(#a)"><path d="M11 15.934a7.5 7.5 0 1 1 2 0V18h5v2h-5v4h-2v-4H6v-2h5v-2.066Z" /></g><defs><clipPath id="a"><path fill="#fff" d="M0 0h24v24H0z"/></clipPath></defs></svg>
